X:129
T: ES STOT EIN LIND IM HIMMELREICH
N: E0067A
O: Europa, Mitteleuropa, Deutschland
R: erzaehlendes Volks - Lied, Sage, Liebe
M: 4/4
L: 1/8
K: C
C2 | E2G2G2A2 | c2BGAGA2 | G4z2
G2 | A2c2B3A | G3FE2
G2 | G2E2D2C2 | C4z2
C2 | E2G2G2A2 | c2BGAGA2 | G4z2
G2 | A2c2B3A | G3FE2
G2 | G2E2D2C2 | C4z2

